X:1
T:Title
%%score { ( 1 3 ) | ( 2 4 ) }
L:1/8
Q:1/4=112
M:4/4
K:G
V:1 treble nm="Grand Piano"
V:3 treble 
V:2 bass 
V:4 bass 
V:1
 [DGB]2 [DGB]2 [B,DG]2 [G,DG]2 | [G,CE]2 [G,CG]2 [B,D]4 | [A,DF]2 [CFA]2 [CFA]4 | %3
w: Chas.~H.~Gabriel * * *|||
 [B,DG]2 [DGB]2 [DGB]4 | [DGB]2 [DGB]2 [B,DG]2 [G,DG]2 | E2 G2 D2 G2 | F2 G2 A2 B2 | [B,DG]6 z2 | %8
w: |||||
 d2 d2 B4 | [EA]2 [EG]2 [CE]4 | [B,D][B,D][B,DG][CDA] [DGB]2 [B,DG]2 | [DA]2 [^CGA]2 F2- [Fd]2 | %12
w: ||||
 d2 d2 B4 | [EA]2 [EG]2 [CE]4 | [B,D][B,D][DG]A B2 G2 | A2 A2 [B,DG]4 |] %16
w: ||||
V:2
 G,,2 G,,2 G,,2 B,,2 | C,2 E,2 G,4 | D,2 D,2 D,4 | G,2 G,2 G,4 | G,,2 G,,2 G,,2 B,,2 | %5
 [C,G,C]2 [E,G,C]2 [G,B,]2 [G,B,D]2 | [D,A,D]2 [D,B,D]2 [D,CD]2 [D,D]2 | G,,6 z2 | %8
 [G,B,G]2 [G,B,G]2 [G,DG]4 | [C,C]2 [C,C]2 [C,G,]4 | [G,,G,][G,,G,]G,,G,, G,2 G,2 | %11
 F,2 E,2 z2[K:treble] C2 | [G,B,G]2 [G,B,G]2 [G,D=F]4 | [C,C]2 [C,C]2 [C,G,]4 | %14
 [G,,G,][G,,G,][B,,G,][D,F,D] [G,D]2 [G,B,D]2 | [D,CD]2 [D,CD]2 G,,4 |] %16
V:3
 x8 | x8 | x8 | x8 | x8 | x8 | x8 | x8 | x8 | x8 | x8 | z4 [DA]2 z2 | x8 | x8 | x8 | x8 |] %16
V:4
 x8 | x8 | x8 | x8 | x8 | x8 | x8 | x8 | x8 | x8 | x8 | z4 D,4[K:treble] | x8 | x8 | x8 | x8 |] %16

